nucleusflow/images/logos/nucleusflow.svg

<svg height="4096" viewBox="0 0 4096 4096" width="4096" xmlns="http://www.w3.org/2000/svg" xmlns:xlink="http://www.w3.org/1999/xlink"><mask id="a" fill="#fff"><path d="m0 0h2610.3954v1329.96045h-2610.3954z" fill="#fff" fill-rule="evenodd"/></mask><g fill="none" fill-rule="evenodd"><g fill="#11355c"><path d="m2602.26788 1.23290114c33.93626 377.33190886-31.9449 766.52375186-320.76896 1017.19601886-434.27704 376.91061-803.9628 368.33362-1323.551938 202.91457-395.173779-125.81705-727.815526-377.991681-957.946982-739.282473 2.36098022-8.521347 17.8167262-3.48167 24.4923412-1.995203 75.5739968 16.851917 160.9238088 52.550954 240.8275258 72.145282 410.267458 100.610714 951.120503 155.832538 1357.933243 26.915373 68.85312-21.820053 132.81833-57.312416 202.07878-77.105469l-56.42969 79.561715c-173.52073 193.407544-391.53048 344.740938-643.49157 394.994626-141.017652 28.123619-268.404981 19.673818-408.834274-5.524567l128.119006 43.719596c718.235828 197.80335 1383.255318-412.474515 1740.691128-1003.3329305 4.76722-7.89337429-.73168-14.19694511 16.88139-10.20653836" mask="url(#a)" transform="translate(203.6357 2766.0396)"/><path d="m3907.27065 3077.20464c-68.64946-385.00271-250.90506-737.62907-475.21327-1045.29579 4.78231-9.49908 22.14645-2.67087 29.69706.50079 148.21374 62.2726 364.2472 269.84529 441.84274 416.71134l56.35426 135.24458c-58.9189-458.99216-374.52086-789.23409-714.12486-1047.76794-246.9525-188.00221-514.04498-386.11557-809.65027-474.27017-8.28983-7.01104-9.33832-9.59447.03772-16.17625 30.56451-21.4544 151.25359-55.325166 193.03465-66.851241 478.63028-132.001384 795.63525-125.061892 1107.61653 310.091171 209.72746 292.52384 366.58555 596.33529 358.86145 972.99948-3.83942 187.46168-64.99861 642.58267-164.42379 796.49949-6.57001 10.1668-8.4935 21.74852-24.03222 18.31454"/><path d="m980.483406 128.201046c8.915906 8.974441-106.304455 153.265006-119.255902 172.334698-292.919952 431.234196-400.567073 842.619696-208.724229 1353.725616 95.932736 255.57681 239.613092 507.54477 374.671725 741.8659l96.62669 132.58961c-191.194135-38.33016-371.790265-141.17455-534.886477-251.02202-334.723634-225.45798-458.354515-439.22296-399.397897-872.64313 62.004017-455.804611 320.957535-926.354648 670.955881-1200.699087 14.912645-11.693004 109.691292-86.533003 120.010209-76.151587"/><path d="m1802.65743 3069.39553-233.6767 59.62558c-273.26271 60.25355-852.841872 170.97541-1099.017433 37.13781-246.892153-134.21916-412.1607684-571.75693-469.963297-844.07437 279.825186 272.93746 671.152001 362.28442 1022.14603 492.696 256.7962 95.40411 505.50623 227.18292 780.5114 254.61498"/><path d="m2715.46443 3967.493c24.38674-60.72254 58.82085-117.11287 84.24098-177.43001 179.57782-426.01964 262.55911-1071.05061 269.49873-1536.39404.39978-26.63716-13.49455-60.45228-6.75859-90.53136 13.35123-14.18105 65.02125 47.76564 75.16667 59.8243 94.91442 112.81246 180.19635 310.10707 226.64656 452.72039 99.10083 304.26454 134.37975 595.29397-79.22484 854.7658-152.12105 184.79875-359.90239 334.9239-569.56951 437.04492"/><path d="m1259.57767 96.4049766c-141.58338 328.2944204-233.06571 683.7188374-256.35116 1045.3355334-16.194967 251.37973 11.72193 413.43635 49.79933 654.88776 1.27478 8.10799 9.27798 21.97903-8.23703 16.60549-10.44715-3.20345-63.233534-51.43809-75.785199-63.26623-179.743763-169.52074-249.290848-374.84386-275.057967-624.26813-41.954544-405.996068 76.539509-656.517302 373.464826-901.998858 19.9665-16.50216 179.40433-140.4193932 192.1672-127.2955654"/><path d="m3454.57118 2870.56675c-13.86416-2.49599-12.65727-16.34318-16.02148-26.75639-72.50397-224.23383-106.8551-416.03567-208.86755-638.38559-79.90371-174.16297-201.76197-327.13386-279.12368-492.80729-5.52907-11.84403-13.70575-28.99006-12.69498-42.18543 201.75443 139.77552 396.19964 269.28091 460.29308 532.3298 51.57196 211.66644 55.67539 450.16875 56.41461 667.8049"/><path d="m2964.3472 334.832575-56.66352-15.810596c-577.66322-8.195437-1049.25582 399.787883-1474.68485 758.932441l-177.08106 194.9417c4.81248-203.90024 47.53642-410.042113 116.65355-600.429029 107.47363-296.085002 254.17875-426.130927 525.51044-551.121277 359.71382-165.7131668 568.12879-152.136245 934.40507-17.185776 262.13669 96.580562 508.89307 248.804246 697.55274 465.208297-70.82186 23.918593-149.00576 7.392586-222.79205 11.557871-198.526 11.200166-413.63167 40.412805-608.32579 82.296177-206.17467 44.347569-417.0185 106.270415-598.33877 219.925466 30.38348-76.278771 96.242-161.357105 150.83873-222.516845 119.31625-133.654779 404.4593-325.798429 580.92182-325.798429z"/></g><path d="m2012.60741 1799.35637c-303.7518 8.13979-325.40795 485.32726-24.28114 521.87684 367.46809 44.60194 385.88072-531.56669 24.28114-521.87684m499.13988 61.62873c108.39389 21.56568 215.43002 57.11369 318.68707 97.45495 48.12478 18.80738 168.63283 63.71138 204.77167 92.77299 21.95032 17.65476-19.50638 39.15686-31.57529 45.98506-142.14911 80.43611-344.24298 120.47531-499.3888 169.33792 59.42429 119.16372 126.18044 235.13194 174.79551 360.18588 22.75744 58.54451 53.52561 125.03804 51.47389 188.23273-13.12493 13.67231-140.26334-50.97705-163.4281-62.29645-115.83135-56.597-227.20475-125.7455-338.23871-191.90518l-133.69333 423.23749c-23.30054 46.55739-33.99661 102.55027-69.9167 140.80094-36.71965-.04769-191.82775-494.08707-199.98935-564.2292-59.59778 29.79291-476.77469 276.02168-505.29503 258.41461-12.22731-7.55952 5.63467-63.01982 9.66267-77.336 45.94483-163.20127 136.90668-323.58065 209.07121-475.10482-185.12197-46.85151-372.28057-98.45653-543.379974-187.15961-1.312494-9.96012 1.651932-16.54191 7.309234-24.16502 16.72298-22.55136 166.9658-82.85261 202.33525-96.77134 108.65035-42.74981 221.23063-76.09594 333.73549-105.43576-55.40383-110.52314-113.08567-221.13372-159.70937-336.33883-27.07207-66.89893-61.28743-139.60064-66.52232-212.01619 12.36309-13.3305 187.02282 74.67307 213.8686 88.53615 102.24629 52.78943 196.88162 120.76943 298.92424 173.73373 52.75621-190.18819 100.79047-395.75773 199.98935-564.22133 18.19388-.11916 66.22814 141.71515 77.31645 164.79115l126.29358 399.24735c109.58569-67.66998 218.35673-139.32243 333.01136-197.4059 29.81775-15.11108 127.40996-67.36792 151.57795-71.32653 9.21763-1.51031 15.14648-2.90934 21.18848 6.4387 15.84798 24.49093-79.17959 243.51815-95.69136 281.23624-15.12385 34.52258-136.67285 263.63711-127.18367 275.30627" fill="#d51f29"/><path d="m2012.60741 1799.35637c361.59958-9.68985 343.18695 566.47878-24.28114 521.87684-301.12681-36.54958-279.47066-513.73705 24.28114-521.87684" fill="#fefefe"/></g></svg>

<?xml version="1.0" encoding="UTF-8"?>
<svg width="4096px" height="4096px" viewBox="0 0 4096 4096" version="1.1" xmlns="http://www.w3.org/2000/svg" xmlns:xlink="http://www.w3.org/1999/xlink">
    <title>nucleusflow</title>
    <defs>
        <polygon id="path-1" points="0 0 2610.3954 0 2610.3954 1329.96045 0 1329.96045"></polygon>
    </defs>
    <g id="nucleusflow" stroke="none" stroke-width="1" fill="none" fill-rule="evenodd">
        <g>
            <g id="Group-3" transform="translate(203.6357, 2766.0396)">
                <mask id="mask-2" fill="white">
                    <use xlink:href="#path-1"></use>
                </mask>
                <g id="Clip-2"></g>
                <path d="M2602.26788,1.23290114 C2636.20414,378.56481 2570.32298,767.756653 2281.49892,1018.42892 C1847.22188,1395.33953 1477.53612,1386.76254 957.946982,1221.34349 C562.773203,1095.52644 230.131456,843.351809 0,482.061017 C2.36098022,473.53967 17.8167262,478.579347 24.4923412,480.065814 C100.066338,496.917731 185.41615,532.616768 265.319867,552.211096 C675.587325,652.82181 1216.44037,708.043634 1623.25311,579.126469 C1692.10623,557.306416 1756.07144,521.814053 1825.33189,502.021 L1768.9022,581.582715 C1595.38147,774.990259 1377.37172,926.323653 1125.41063,976.577341 C984.392978,1004.70096 857.005649,996.251159 716.576356,971.052774 L844.695362,1014.77237 C1562.93119,1212.57572 2227.95068,602.297855 2585.38649,11.4394395 C2590.15371,3.54606521 2584.65481,-2.75750561 2602.26788,1.23290114" id="Fill-1" fill="#11355C" mask="url(#mask-2)"></path>
            </g>
            <path d="M3907.27065,3077.20464 C3838.62119,2692.20193 3656.36559,2339.57557 3432.05738,2031.90885 C3436.83969,2022.40977 3454.20383,2029.23798 3461.75444,2032.40964 C3609.96818,2094.68224 3826.00164,2302.25493 3903.59718,2449.12098 L3959.95144,2584.36556 C3901.03254,2125.3734 3585.43058,1795.13147 3245.82658,1536.59762 C2998.87408,1348.59541 2731.7816,1150.48205 2436.17631,1062.32745 C2427.88648,1055.31641 2426.83799,1052.73298 2436.21403,1046.1512 C2466.77854,1024.6968 2587.46762,990.826034 2629.24868,979.299959 C3107.87896,847.298575 3424.88393,854.238067 3736.86521,1289.39113 C3946.59267,1581.91497 4103.45076,1885.72642 4095.72666,2262.39061 C4091.88724,2449.85229 4030.72805,2904.97328 3931.30287,3058.8901 C3924.73286,3069.0569 3922.80937,3080.63862 3907.27065,3077.20464" id="Fill-4" fill="#11355C"></path>
            <path d="M980.483406,128.201046 C989.399312,137.175487 874.178951,281.466052 861.227504,300.535744 C568.307552,731.76994 460.660431,1143.15544 652.503275,1654.26136 C748.436011,1909.83817 892.116367,2161.80613 1027.175,2396.12726 L1123.80169,2528.71687 C932.607555,2490.38671 752.011425,2387.54232 588.915213,2277.69485 C254.191579,2052.23687 130.560698,1838.47189 189.517316,1405.05172 C251.521333,949.247109 510.474851,478.697072 860.473197,204.352633 C875.385842,192.659629 970.164489,117.81963 980.483406,128.201046" id="Fill-6" fill="#11355C"></path>
            <path d="M1802.65743,3069.39553 L1568.98073,3129.02111 C1295.71802,3189.27466 716.138858,3299.99652 469.963297,3166.15892 C223.071144,3031.93976 57.8025286,2594.40199 0,2322.08455 C279.825186,2595.02201 671.152001,2684.36897 1022.14603,2814.78055 C1278.94223,2910.18466 1527.65226,3041.96347 1802.65743,3069.39553" id="Fill-8" fill="#11355C"></path>
            <path d="M2715.46443,3967.493 C2739.85117,3906.77046 2774.28528,3850.38013 2799.70541,3790.06299 C2979.28323,3364.04335 3062.26452,2719.01238 3069.20414,2253.66895 C3069.60392,2227.03179 3055.70959,2193.21667 3062.44555,2163.13759 C3075.79678,2148.95654 3127.4668,2210.90323 3137.61222,2222.96189 C3232.52664,2335.77435 3317.80857,2533.06896 3364.25878,2675.68228 C3463.35961,2979.94682 3498.63853,3270.97625 3285.03394,3530.44808 C3132.91289,3715.24683 2925.13155,3865.37198 2715.46443,3967.493" id="Fill-10" fill="#11355C"></path>
            <path d="M1259.57767,96.4049766 C1117.99429,424.699397 1026.51196,780.123814 1003.22651,1141.74051 C987.031543,1393.12024 1014.94844,1555.17686 1053.02584,1796.62827 C1054.30062,1804.73626 1062.30382,1818.6073 1044.78881,1813.23376 C1034.34166,1810.03031 981.555276,1761.79567 969.003611,1749.96753 C789.259848,1580.44679 719.712763,1375.12367 693.945644,1125.6994 C651.9911,719.703332 770.485153,469.182098 1067.41047,223.700542 C1087.37697,207.198382 1246.8148,83.2811488 1259.57767,96.4049766" id="Fill-12" fill="#11355C"></path>
            <path d="M3454.57118,2870.56675 C3440.70702,2868.07076 3441.91391,2854.22357 3438.5497,2843.81036 C3366.04573,2619.57653 3331.6946,2427.77469 3229.68215,2205.42477 C3149.77844,2031.2618 3027.92018,1878.29091 2950.55847,1712.61748 C2945.0294,1700.77345 2936.85272,1683.62742 2937.86349,1670.43205 C3139.61792,1810.20757 3334.06313,1939.71296 3398.15657,2202.76185 C3449.72853,2414.42829 3453.83196,2652.9306 3454.57118,2870.56675" id="Fill-14" fill="#11355C"></path>
            <path d="M2964.3472,334.832575 L2907.68368,319.021979 C2330.02046,310.826542 1858.42786,718.809862 1432.99883,1077.95442 L1255.91777,1272.89612 C1260.73025,1068.99588 1303.45419,862.854007 1372.57132,672.467091 C1480.04495,376.382089 1626.75007,246.336164 1898.08176,121.345814 C2257.79558,-44.3673528 2466.21055,-30.790431 2832.48683,104.160038 C3094.62352,200.7406 3341.3799,352.964284 3530.03957,569.368335 C3459.21771,593.286928 3381.03381,576.760921 3307.24752,580.926206 C3108.72152,592.126372 2893.61585,621.339011 2698.92173,663.222383 C2492.74706,707.569952 2281.90323,769.492798 2100.58296,883.147849 C2130.96644,806.869078 2196.82496,721.790744 2251.42169,660.631004 C2370.73794,526.976225 2655.88099,334.832575 2832.34351,334.832575 L2964.3472,334.832575 Z" id="Fill-16" fill="#11355C"></path>
            <path d="M2012.60741,1799.35637 C1708.85561,1807.49616 1687.19946,2284.68363 1988.32627,2321.23321 C2355.79436,2365.83515 2374.20699,1789.66652 2012.60741,1799.35637 M2511.74729,1860.9851 C2620.14118,1882.55078 2727.17731,1918.09879 2830.43436,1958.44005 C2878.55914,1977.24743 2999.06719,2022.15143 3035.20603,2051.21304 C3057.15635,2068.8678 3015.69965,2090.3699 3003.63074,2097.1981 C2861.48163,2177.63421 2659.38776,2217.67341 2504.24194,2266.53602 C2563.66623,2385.69974 2630.42238,2501.66796 2679.03745,2626.7219 C2701.79489,2685.26641 2732.56306,2751.75994 2730.51134,2814.95463 C2717.38641,2828.62694 2590.248,2763.97758 2567.08324,2752.65818 C2451.25189,2696.06118 2339.87849,2626.91268 2228.84453,2560.753 L2095.1512,2983.99049 C2071.85066,3030.54788 2061.15459,3086.54076 2025.2345,3124.79143 C1988.51485,3124.74374 1833.40675,2630.70436 1825.24515,2560.56223 C1765.64737,2590.35514 1348.47046,2836.58391 1319.95012,2818.97684 C1307.72281,2811.41732 1325.58479,2755.95702 1329.61279,2741.64084 C1375.55762,2578.43957 1466.51947,2418.06019 1538.684,2266.53602 C1353.56203,2219.68451 1166.40343,2168.07949 995.304026,2079.37641 C993.991532,2069.41629 996.955958,2062.8345 1002.61326,2055.21139 C1019.33624,2032.66003 1169.57906,1972.35878 1204.94851,1958.44005 C1313.59886,1915.69024 1426.17914,1882.34411 1538.684,1853.00429 C1483.28017,1742.48115 1425.59833,1631.87057 1378.97463,1516.66546 C1351.90256,1449.76653 1317.6872,1377.06482 1312.45231,1304.64927 C1324.8154,1291.31877 1499.47513,1379.32234 1526.32091,1393.18542 C1628.5672,1445.97485 1723.20253,1513.95485 1825.24515,1566.91915 C1878.00136,1376.73096 1926.03562,1171.16142 2025.2345,1002.69782 C2043.42838,1002.57866 2091.46264,1144.41297 2102.55095,1167.48897 L2228.84453,1566.73632 C2338.43022,1499.06634 2447.20126,1427.41389 2561.85589,1369.33042 C2591.67364,1354.21934 2689.26585,1301.9625 2713.43384,1298.00389 C2722.65147,1296.49358 2728.58032,1295.09455 2734.62232,1304.44259 C2750.4703,1328.93352 2655.44273,1547.96074 2638.93096,1585.67883 C2623.80711,1620.20141 2502.25811,1849.31594 2511.74729,1860.9851" id="Fill-18" fill="#D51F29"></path>
            <path d="M2012.60741,1799.35637 C2374.20699,1789.66652 2355.79436,2365.83515 1988.32627,2321.23321 C1687.19946,2284.68363 1708.85561,1807.49616 2012.60741,1799.35637" id="Fill-20" fill="#FEFEFE"></path>
        </g>
    </g>
</svg>
